X: 242
T:Strop the Razor
R:jig
D:Conal O'Grada: The Top of Coom
Z:id:hn-jig-250
M:6/8
K:G
BGG AGG|BGG AGF|DGG GFG|DGG G2A|
BGG AGG|BGG AGF|D2E F2G|ADE FGA:|
|:dBB cAA|dBB cAF|DGG GFG|DGG G2B|
dBB cAA|dBB cAF|D2E F2G|ADE FGA:|
|:~B3 cBc|ded dBd|~g3 gfd|gag gdc|
~B3 cBc|ded d2e|~f3 fde|fag fdc:|
"variations"
|:BGG AGG|BGG AGF|D/E/FG GFG|D/E/FG G2A|
BGG AGG|BGG AGF|D2E F2G|ADE FGA:|
|:d2B cAA|dBB cAF|DGG GFG|DGG G2B|
d2B c2A|dcB cAF|D2E F2G|ADE FGA:|
|:BAB cBc|~d3 dBd|gag gfd|~g3 gdc|
~B3 cBc|ded d2e|=f3 fde|=fag ^fdc:|
<end>
<start>
